calendar-alert.svg

<svg  viewBox="0 0 24 24" fill="currentColor"><path  d="M6 1V3H5C3.89 3 3 3.89 3 5V19C3 20.11 3.9 21 5 21H19C20.11 21 21 20.11 21 19V5C21 3.9 20.11 3 19 3H18V1H16V3H8V1H6M5 8H19V19H5V8M11 9V14H13V9H11M11 16V18H13V16H11Z"/></svg>

<svg fill="currentColor" viewBox="0 0 24 24"><path d="M6 1v2H5c-1.11 0-2 .89-2 2v14a2 2 0 0 0 2 2h14c1.11 0 2-.89 2-2V5a2 2 0 0 0-2-2h-1V1h-2v2H8V1zM5 8h14v11H5zm6 1v5h2V9zm0 7v2h2v-2z"/></svg>
